X: 309
T:Cela sans plus
N: Derived from Jos2704-Cela_sans_plus.krn
C: Josquin des Prez
%%abc-version 2.0
%%abcx-abcm2ps-target-version 5.9.1 (29 Sep 2008)
%%abc-creator hum2abc beta
%%abcx-conversion-date 2019/02/12 16:15:54
%%abc-edited-by Jesse Rodin
%%abc-edited-by Victoria Chang 2012/03/27
%%abcx-initial-encoding-date 2012/03/27/
%%humdrum-veritas 359676618
%%humdrum-veritas-data 961820976
%%linebreak <none>
%%barnumbers 0
L: 1/4
M: 2/1
Q: 1/2=120
V: 1 clef=treble
V: 2 clef=treble-8
V: 3 clef=treble-8
K: C
[V:1] z8 | 
[V:2] z8 | 
[V:3] g8 | 
[V:1] z8 | 
[V:2] z8 | 
[V:3] f4e4 | 
[V:1] d8 | 
[V:2] z8 | 
[V:3] d8 | 
[V:1] c4B4 | 
[V:2] z8 | 
[V:3] z8 | 
[V:1] A8 | 
[V:2] d8 | 
[V:3] f8 | 
[V:1] z8 | 
[V:2] c4B4 | 
[V:3] g4g4 | 
[V:1] c8 | 
[V:2] A8 | 
[V:3] a3ge2f2 | 
[V:1] B6AG | 
[V:2] z8 | 
[V:3] g2d2edcB | 
[V:1] A4A4 | 
[V:2] c8 | 
[V:3] A2F4EF | 
[V:1] G2FED2G2- | 
[V:2] B6AG | 
[V:3] G2g3fed | 
[V:1] G2^F2F2E2 | 
[V:2] A4A4 | 
[V:3] c2d4c2 | 
[V:1] G8 | 
[V:2] G8- | 
[V:3] d6e2- | 
[V:1] z8 | 
[V:2] G8 | 
[V:3] e2dcB4 | 
[V:1] c8 | 
[V:2] z8 | 
[V:3] A4z2a2- | 
[V:1] c4d4 | 
[V:2] z8 | 
[V:3] a2g2f4 | 
[V:1] e8 | 
[V:2] c8 | 
[V:3] e3fg2a2- | 
[V:1] e4f4 | 
[V:2] c4d4 | 
[V:3] a2g2f2ed | 
[V:1] g6f2 | 
[V:2] e8 | 
[V:3] c8 | 
[V:1] e2dcd4 | 
[V:2] e4f4 | 
[V:3] z8 | 
[V:1] e2d3cBA | 
[V:2] g6f2 | 
[V:3] G4B4 | 
[V:1] G2c4B2 | 
[V:2] e2dcd4 | 
[V:3] c2BAG4 | 
[V:1] c8 | 
[V:2] c8- | 
[V:3] z4g4- | 
[V:1] z8 | 
[V:2] c8- | 
[V:3] g2f2e4- | 
[V:1] g6f2 | 
[V:2] c8 | 
[V:3] e2d2c4- | 
[V:1] e4d4 | 
[V:2] z8 | 
[V:3] c4d4 | 
[V:1] c8- | 
[V:2] z8 | 
[V:3] e2f2e2a2- | 
[V:1] c4c4 | 
[V:2] z8 | 
[V:3] a2gfe4 | 
[V:1] d6c2 | 
[V:2] z8 | 
[V:3] d2f4e2 | 
[V:1] B2AGA4 | 
[V:2] z8 | 
[V:3] d2g4f2 | 
[V:1] G4z2d2- | 
[V:2] g6f2 | 
[V:3] e2dcB3A | 
[V:1] dcc4B2 | 
[V:2] e4d4 | 
[V:3] c4G4 | 
[V:1] c8 | 
[V:2] c8- | 
[V:3] z2A3Bcd | 
[V:1] z8 | 
[V:2] c4c4 | 
[V:3] e3fg2a2- | 
[V:1] z8 | 
[V:2] d6c2 | 
[V:3] agf4e2 | 
[V:1] z8 | 
[V:2] B2AGA4 | 
[V:3] d2g4^f2 | 
[V:1] z8 | 
[V:2] G4z2d2- | 
[V:3] g4f4 | 
[V:1] z8 | 
[V:2] dcc4B2 | 
[V:3] e4d4 | 
[V:1] c8 | 
[V:2] c8 | 
[V:3] e2g4fe | 
[V:1] d4B4 | 
[V:2] z8 | 
[V:3] d3BcBAG | 
[V:1] A8 | 
[V:2] c8 | 
[V:3] F4z4 | 
[V:1] z8 | 
[V:2] d4B4 | 
[V:3] f4g4 | 
[V:1] c8 | 
[V:2] A8 | 
[V:3] a4f2e2- | 
[V:1] B6AG | 
[V:2] z8 | 
[V:3] efg3fde | 
[V:1] A2G4FE | 
[V:2] c8 | 
[V:3] f2e4dc | 
[V:1] D4G4- | 
[V:2] B6AG | 
[V:3] f2g3fed | 
[V:1] G2^F2F2E2 | 
[V:2] A4A4 | 
[V:3] c8 | 
[V:1] G8 |]  
[V:2] G8 |]  
[V:3] d8 |]  



